X:1
T:Fuggi donna quanto voi
T:Giovanni Francesco Capuano
T:Source : Primo libro delle villanelle a 3 voci---Venetia---Figlio d'A.Gardano---1574. Editor : André Vierendeels (30/03/16).
T:Notes : Original clefs : C1, C2, C3 Editorial accidentals above the staff "Alla napolitana" Music by composers from Bari, collected by G.de Antiquis
T:Fuggi donna quanto voi
T:©
T:©
C:Giovanni Francesco Capuano
Z:©
%%score [ 1 2 3 ]
L:1/8
Q:1/4=94
M:4/4
K:F
V:1 treble nm="Soprano" snm="S"
V:2 treble nm="Alto" snm="A"
V:3 treble-8 nm="Tenor" snm="T"
V:1
 F6 G2 | A2 F2 A2 B2 | c4 c4 | G6 A2 | B2 G2 B2 c2 | d6 cB | A6 G2 | F2 B2 A4 |[M:2/4] G4 :: %9
w: 1)Fug- gi|don- na quan- to|vo- i,|fug- gi|1)don- na quan- to|vo- * *|* i,|quan- to vo-|i,|
w: 2)Fug- gi|pur ch'al tuo dis-|pet- to,|fug- gi|2)pur ch'al tuo dis-|pet- * *|* to,|dis- * pet-|to,|
w: 3)Fug- gi|pur ch'io son con-|ten- to,|fug- gi|3)pur ch'io son con-|ten- * *|* to,|con- * ten-|to,|
w: 4)Non fug-|gir piu donn' hor-|ma- i,|non fug-|4)gir piu donn' hor-|ma- * *|* i,|hor- * ma-|i.|
[M:3/4] c4 B2 |[M:4/4] A2 F2 G2 A2 | G4 A2 c2- | c2 B2 A2 G2 | B2 B2 A4 | G2 G4 G2 | B6 B2 | %16
w: 1)che da|me fug- gir non|po- i, ch'io|_ li vo- glio|pur se- gui-|1)re, se do-|ves- se|
w: 2)di se-|guir- ti ti pro-|met- to, que-|* sta'im- pre- sa'ho|da fi- ni-|2)re, se do-|ves- se|
w: 3)di se-|guir- ti com' al|ven- to, hai|_ da far il|mio de- si-|3)re, se do-|ves- se|
w: 4)che scam-|par tu non po-|tra- i, che|_ per forz' o|donn' al- tie-|4)ra, ti far|o mia|
 B2 B2 A4 | G4 z2 G2- | G2 G2 B4- | B2 B2 d2 d2 | d4 c2 c2- | c2 B2 A4 |[M:2/4] G4 :| %23
w: ben mo- ri-|re, se|_ do- ves-|1)- se ben mo-|ri- re, ben|_ mo- ri-|re.|
w: ben mo- ri-|re, se|_ do- ves-|2)- se ben mo-|ri- re, ben|_ mo- ri-|re.|
w: ben mo- ri-|re, se|_ do- ves-|3)- se ben mo-|ri- re, ben|_ mo- ri-|re.|
w: pre- gio- ne-|ra, ti|_ far o|4) mia pre- gio-|ne- ra, pre-|* gio- ne-|ra.|
V:2
 z8 | z8 | C6 D2 | E2 C2 E2 F2 | G4 G4 | D6 E2 | F2 D2 F2 G2 | A2 G4 ^F2 |[M:2/4] G4 :: %9
w: ||1)Fug- gi|don- na quan- to|1)vo- i,|fug- gi|don- na quan- to|vo- * *|i,|
w: ||2)Fug- gi|pur ch'al tuo dis-|2)pet- to,|fug- gi|pur ch'al tuo dis-|pet- * *|to,|
[M:3/4] G4 G2 |[M:4/4] F2 D2 E2 F2- | F2 E2 F2 A2- | A2 G2 F2 E2 | F2 G4 ^F2 | G4 z4 | z2 D4 D2 | %16
w: 1)che da|me fug- gir non|_ po- i, ch'io|_ li vo- glio|pur se- gui-|1)re,|se do-|
w: 2)di se-|guir- ti ti pro-|* met- to, que-|* sta'im- pre- sa'ho|da fi- ni-|2)re,|se do-|
 F6 F2 | E2 E2 D4 | E4 z4 | G4 G2 B2- | B2 B2 A4- | A2 G4 ^F2 |[M:2/4] G4 :| %23
w: ves- se|ben mo- ri-|re,|1)se do- ves-|* se ben|_ mo- ri-|re.|
w: ves- se|ben mo- ri-|re,|2)se do- ves-|* se ben|_ mo- ri-|re.|
V:3
 z8 | F6 G2 | A2 F2 A2 B2 | c4 c4 | G6 A2 | B2 G2 B2 c2 | d6 c2 |"^b" d2 e2 d4 |[M:2/4] G4 :: %9
w: |3)Fug- gi|pur ch'io son con-|ten- to,|3)fug- gi|pur ch'io son con-|ten- *|to, con- ten-|to,|
w: |4)Non fug-|gir piu donn' hor-|ma- i,|4)non fug-|gir piu donn' hor-|ma- *|i, hor- ma-|i,|
[M:3/4] c4 G2 |[M:4/4] d2 B2 c2 d2 | c4 F2 f2- | f2 e2 d2 c2 | B2 G2 d4 | G4 G4- | G2 G2 B4- | %16
w: 3)di se-|guir- ti com' al|ven- to, hai|_ da far il|mio de- si-|3)re, se|_ do- ves-|
w: 4)che scam-|par tu non po-|tra- i, che|_ per forz' o|donn' al- tie-|4)ra, ti|_ far o|
 B2 B2 F2 F2 | c4 G4 | z4 G4- | G2 G2 g4- | g2 g2 f4 | _e4 d4 |[M:2/4] G4 :| %23
w: * se ben mo-|ri- re,|se|3) do- ves-|* se ben|mo- ri-|re.|
w: _ mia pre- gio-|ne- ra,|ti|4) far o|_ mia pre-|gio- ne-|ra.|

